svg/u1f9e6.svg

<svg viewBox="0 0 128 128" xmlns="http://www.w3.org/2000/svg">
  <g>
    <g>
      <path d="M85.49,24.13c17.85,1.07,20.95,0.08,24.19,0c3.25-0.08,3.1,1.39,3.1,3.1l0.44,40.38 c0,0.66,0.13,1.41,0.34,2.22l-7.83,24.98c-1.31,0.65-1.98,1.09-2.67,1.61c-1.1,0.82-22.8,20.96-25.82,23.9 c-3.02,2.93-13.31,7.08-20.05-1.1c-5.77-7-2.45-16.08,0-18.95S81.35,73.71,82.73,69.5c1.13-3.46-0.03-32.96-0.33-42.19 C82.34,25.57,82.15,23.93,85.49,24.13z" fill="#C9E3E6"/>
      <g>
        <path d="M117.62,83.98c0.46-6.42-3.52-11.24-4.3-15.25c-3.14,2.47-9.37,6.33-13.35,8.34 c-1.36,0.69-1.79,2.39-1.26,3.83c1.36,3.72,4.16,10.02,6.52,14.16c0,0,1.55-0.97,4.11-1.87C111.9,92.28,117.2,89.89,117.62,83.98 z" fill="#5FB2DE"/>
        <path d="M55.35,103.43c-1.7,4.09-2.5,10.52,1.84,15.78c5.27,6.39,12.7,5.26,17.14,3.06 c0,0-0.31-5.37-5.81-11.87C63.02,103.89,55.35,103.43,55.35,103.43z" fill="#5FB2DE"/>
      </g>
      <path d="M96,38.92c-6.26,0-10.89-0.59-13.22-0.96l-0.2-5.12c0.13,0.03,12.4,2.76,30.25-0.33l0.05,5.03 C106.51,38.57,100.78,38.92,96,38.92z" fill="#F44336"/>
      <path d="M96,48.15c-6.05,0-10.59-0.55-12.99-0.93l-0.14-5.01c2.95,0.52,14.61,2.21,30.05-0.47l0.05,5.02 C106.57,47.8,100.81,48.15,96,48.15z" fill="#F44336"/>
    </g>
    <g>
      <path d="M39.85,4.02c17.85,1.07,20.95,0.08,24.19,0c3.25-0.08,3.1,1.39,3.1,3.1l0.44,40.38 c0,0.66,0.13,1.41,0.34,2.22l-7.83,24.98c-1.31,0.65-1.98,1.09-2.67,1.61c-1.1,0.82-22.8,20.96-25.82,23.9 c-3.02,2.93-13.31,7.08-20.05-1.1c-5.77-7-2.45-16.08,0-18.95C14,77.28,35.72,53.6,37.09,49.39c1.13-3.46-0.03-32.96-0.33-42.19 C36.7,5.46,36.51,3.82,39.85,4.02z" fill="#C9E3E6"/>
      <g>
        <path d="M71.98,63.87c0.46-6.42-3.52-11.24-4.3-15.25c-3.14,2.47-9.37,6.33-13.35,8.34 c-1.36,0.69-1.79,2.39-1.26,3.83c1.36,3.72,4.16,10.02,6.52,14.16c0,0,1.55-0.97,4.11-1.87C66.26,72.17,71.56,69.78,71.98,63.87z " fill="#5FB2DE"/>
        <path d="M9.71,83.32c-1.7,4.09-2.5,10.52,1.84,15.78c5.27,6.39,12.7,5.26,17.14,3.06 c0,0-0.31-5.37-5.81-11.87C17.39,83.78,9.71,83.32,9.71,83.32z" fill="#5FB2DE"/>
      </g>
      <path d="M50.37,18.81c-6.26,0-10.89-0.59-13.22-0.96l-0.2-5.12c0.13,0.03,12.4,2.76,30.25-0.33l0.05,5.03 C60.87,18.46,55.15,18.81,50.37,18.81z" fill="#F44336"/>
      <path d="M50.37,28.04c-6.05,0-10.59-0.55-12.99-0.93l-0.14-5.01c2.95,0.52,14.61,2.21,30.05-0.47 l0.05,5.02C60.93,27.69,55.17,28.04,50.37,28.04z" fill="#F44336"/>
    </g>
  </g>
</svg>

<svg viewBox="0 0 128 128" xmlns="http://www.w3.org/2000/svg">
  <defs/>
  <path d="M85.49,24.13 C103.34,25.2 106.44,24.21 109.68,24.13 C112.93,24.05 112.78,25.52 112.78,27.23 L113.22,67.61 C113.22,68.27 113.35,69.02 113.56,69.83 L105.73,94.81 C104.42,95.46 103.75,95.9 103.06,96.42 C101.96,97.24 80.26,117.38 77.24,120.32 C74.22,123.25 63.93,127.4 57.19,119.22 C51.42,112.22 54.74,103.14 57.19,100.27 C59.64,97.4 81.35,73.71 82.73,69.5 C83.86,66.04 82.7,36.54 82.4,27.31 C82.34,25.57 82.15,23.93 85.49,24.13 Z" fill="#C9E3E6"/>
  <path d="M117.62,83.98 C118.08,77.56 114.1,72.74 113.32,68.73 C110.18,71.2 103.95,75.06 99.97,77.07 C98.61,77.76 98.18,79.46 98.71,80.9 C100.07,84.62 102.87,90.92 105.23,95.06 C105.23,95.06 106.78,94.09 109.34,93.19 C111.9,92.28 117.2,89.89 117.62,83.98 Z" fill="#5FB2DE"/>
  <path d="M55.35,103.43 C53.65,107.52 52.85,113.95 57.19,119.21 C62.46,125.6 69.89,124.47 74.33,122.27 C74.33,122.27 74.02,116.9 68.52,110.4 C63.02,103.89 55.35,103.43 55.35,103.43 Z" fill="#5FB2DE"/>
  <path d="M96,38.92 C89.74,38.92 85.11,38.33 82.78,37.96 L82.58,32.84 C82.71,32.87 94.98,35.6 112.83,32.51 L112.88,37.54 C106.51,38.57 100.78,38.92 96,38.92 Z" fill="#F44336"/>
  <path d="M96,48.15 C89.95,48.15 85.41,47.6 83.01,47.22 L82.87,42.21 C85.82,42.73 97.48,44.42 112.92,41.74 L112.97,46.76 C106.57,47.8 100.81,48.15 96,48.15 Z" fill="#F44336"/>
  <path d="M39.85,4.02 C57.7,5.09 60.8,4.1 64.04,4.02 C67.29,3.94 67.14,5.41 67.14,7.12 L67.58,47.5 C67.58,48.16 67.71,48.91 67.92,49.72 L60.09,74.7 C58.78,75.35 58.11,75.79 57.42,76.31 C56.32,77.13 34.62,97.27 31.6,100.21 C28.58,103.14 18.29,107.29 11.55,99.11 C5.78,92.11 9.1,83.03 11.55,80.16 C14,77.28 35.72,53.6 37.09,49.39 C38.22,45.93 37.06,16.43 36.76,7.2 C36.7,5.46 36.51,3.82 39.85,4.02 Z" fill="#C9E3E6"/>
  <path d="M71.98,63.87 C72.44,57.45 68.46,52.63 67.68,48.62 C64.54,51.09 58.31,54.95 54.33,56.96 C52.97,57.65 52.54,59.35 53.07,60.79 C54.43,64.51 57.23,70.81 59.59,74.95 C59.59,74.95 61.14,73.98 63.7,73.08 C66.26,72.17 71.56,69.78 71.98,63.87 Z" fill="#5FB2DE"/>
  <path d="M9.71,83.32 C8.01,87.41 7.21,93.84 11.55,99.1 C16.82,105.49 24.25,104.36 28.69,102.16 C28.69,102.16 28.38,96.79 22.88,90.29 C17.39,83.78 9.71,83.32 9.71,83.32 Z" fill="#5FB2DE"/>
  <path d="M50.37,18.81 C44.11,18.81 39.48,18.22 37.15,17.85 L36.95,12.73 C37.08,12.76 49.35,15.49 67.2,12.4 L67.25,17.43 C60.87,18.46 55.15,18.81 50.37,18.81 Z" fill="#F44336"/>
  <path d="M50.37,28.04 C44.32,28.04 39.78,27.49 37.38,27.11 L37.24,22.1 C40.19,22.62 51.85,24.31 67.29,21.63 L67.34,26.65 C60.93,27.69 55.17,28.04 50.37,28.04 Z" fill="#F44336"/>
</svg>
